dist/img/svg/services/tabs/conditioner.svg

<svg width="33" height="27" viewBox="0 0 33 27" fill="none" xmlns="http://www.w3.org/2000/svg">
<path d="M30.0996 0H2.90039C1.30105 0 0 1.29767 0 2.89286V12.5357C0 14.1309 1.30105 15.4286 2.90039 15.4286H30.0996C31.6989 15.4286 33 14.1309 33 12.5357V2.89286C33 1.29767 31.6989 0 30.0996 0ZM24.2988 5.78571C24.8328 5.78571 25.2656 6.21746 25.2656 6.75C25.2656 7.28254 24.8328 7.71428 24.2988 7.71428C23.7649 7.71428 23.332 7.28254 23.332 6.75C23.332 6.21746 23.7649 5.78571 24.2988 5.78571ZM28.166 11.5714H4.83398C4.2996 11.5714 3.86719 11.1401 3.86719 10.6071C3.86719 10.0741 4.2996 9.64286 4.83398 9.64286H28.166C28.7004 9.64286 29.1328 10.0741 29.1328 10.6071C29.1328 11.1401 28.7004 11.5714 28.166 11.5714ZM28.166 7.71428C27.6321 7.71428 27.1992 7.28254 27.1992 6.75C27.1992 6.21746 27.6321 5.78571 28.166 5.78571C28.6999 5.78571 29.1328 6.21746 29.1328 6.75C29.1328 7.28254 28.6999 7.71428 28.166 7.71428Z" fill="white"/>
<path d="M8.7655 17.3572C8.23112 17.3572 7.7987 17.7885 7.7987 18.3215V19.7952C7.7987 22.0873 6.52131 24.1477 4.4659 25.1732C3.98817 25.4114 3.79462 25.9906 4.03348 26.467C4.27118 26.9398 4.84817 27.1373 5.33073 26.8983C8.04607 25.5442 9.7323 22.8227 9.7323 19.7952V18.3215C9.7323 17.7885 9.29988 17.3572 8.7655 17.3572Z" fill="white"/>
<path d="M24.2344 17.3572C23.7 17.3572 23.2676 17.7885 23.2676 18.3215V19.7952C23.2676 22.8227 24.9538 25.5442 27.6691 26.8983C28.1513 27.137 28.7285 26.9402 28.9664 26.467C29.2053 25.9906 29.0117 25.4114 28.534 25.1732C26.4786 24.1477 25.2012 22.0873 25.2012 19.7952V18.3215C25.2012 17.7885 24.7688 17.3572 24.2344 17.3572Z" fill="white"/>
<path d="M17.4668 26.0357V18.3215C17.4668 17.7885 17.0344 17.3572 16.5 17.3572C15.9656 17.3572 15.5332 17.7885 15.5332 18.3215V26.0357C15.5332 26.5687 15.9656 27 16.5 27C17.0344 27 17.4668 26.5687 17.4668 26.0357Z" fill="white"/>
<path d="M21.334 26.0357V18.3215C21.334 17.7885 20.9016 17.3572 20.3672 17.3572C19.8328 17.3572 19.4004 17.7885 19.4004 18.3215V26.0357C19.4004 26.5687 19.8328 27 20.3672 27C20.9016 27 21.334 26.5687 21.334 26.0357Z" fill="white"/>
<path d="M13.5996 26.0357V18.3215C13.5996 17.7885 13.1672 17.3572 12.6328 17.3572C12.0984 17.3572 11.666 17.7885 11.666 18.3215V26.0357C11.666 26.5687 12.0984 27 12.6328 27C13.1672 27 13.5996 26.5687 13.5996 26.0357Z" fill="white"/>
</svg>

<svg width="33" height="27" fill="none" xmlns="http://www.w3.org/2000/svg"><path d="M30.1 0H2.9A2.9 2.9 0 000 2.893v9.643a2.9 2.9 0 002.9 2.893h27.2a2.9 2.9 0 002.9-2.893V2.893A2.9 2.9 0 0030.1 0zm-5.801 5.786a.966.966 0 110 1.928.966.966 0 01-.967-.964c0-.533.433-.964.967-.964zm3.867 5.785H4.834a.965.965 0 110-1.928h23.332a.965.965 0 110 1.928zm0-3.857a.966.966 0 01-.967-.964c0-.533.433-.964.967-.964s.967.431.967.964a.966.966 0 01-.967.964zM8.765 17.357a.965.965 0 00-.966.965v1.473a5.98 5.98 0 01-3.333 5.378.963.963 0 00-.433 1.294.969.969 0 001.298.431 7.896 7.896 0 004.401-7.103v-1.474a.965.965 0 00-.966-.964zm15.469 0a.965.965 0 00-.966.965v1.473a7.896 7.896 0 004.401 7.103.969.969 0 001.297-.431.963.963 0 00-.432-1.294 5.98 5.98 0 01-3.333-5.378v-1.474a.965.965 0 00-.967-.964zm-6.767 8.679V18.32a.965.965 0 00-.967-.964.965.965 0 00-.967.965v7.714c0 .533.433.964.967.964a.965.965 0 00.967-.964zm3.867 0V18.32a.965.965 0 00-.967-.964.965.965 0 00-.967.965v7.714c0 .533.433.964.967.964a.965.965 0 00.967-.964zm-7.734 0V18.32a.965.965 0 00-.967-.964.965.965 0 00-.967.965v7.714c0 .533.432.964.967.964a.965.965 0 00.967-.964z" fill="#fff"/></svg>
